public/images/icons/guides.svg

<?xml version="1.0" encoding="UTF-8"?>
<svg width="64px" height="64px" viewBox="0 0 64 64" version="1.1" xmlns="http://www.w3.org/2000/svg" xmlns:xlink="http://www.w3.org/1999/xlink">
    <!-- Generator: Sketch 62 (91390) - https://sketch.com -->
    <title>icons/guides copy</title>
    <desc>Created with Sketch.</desc>
    <g id="icons/guides-copy" stroke="none" stroke-width="1" fill="none" fill-rule="evenodd">
        <path d="M30.8802017,17.3125045 L20.0679825,17.3125045 L20.0679825,11.4375054 C20.0679825,9.81516914 21.4172156,8.50000288 23.081579,8.50000288 L29.108772,8.50000288 C29.698863,8.499195 30.2760823,8.66811587 30.7681336,8.98561119 C29.6204862,9.34654231 28.96566,10.522129 29.2801703,11.6568999 L30.8802017,17.3125045 Z M5,52.5624993 C5,54.1848356 6.34923311,55.4999989 8.0135965,55.4999989 L14.0407895,55.4999989 C15.7051529,55.4999989 17.054386,54.1848356 17.054386,52.5624993 L17.054386,46.6875002 L5,46.6875002 L5,52.5624993 Z M41.4287312,11.6568999 C41.4089545,11.5834624 41.3929447,11.5109428 41.380702,11.4375054 L35.4476839,11.4375054 L47.0189527,52.3431048 C47.0387294,52.4165423 47.0547392,52.4890619 47.0669819,52.5624993 L53,52.5624993 L41.4287312,11.6568999 Z M14.0407895,8.50000579 L8.0135965,8.50000579 C6.34923311,8.50000579 5,9.81516914 5,11.4375054 L5,17.3125045 L17.054386,17.3125045 L17.054386,11.4375054 C17.054386,9.81516914 15.7051529,8.50000579 14.0407895,8.50000579 Z M20.0679825,52.5624993 C20.0679825,54.1848356 21.4172156,55.4999989 23.081579,55.4999989 L29.108772,55.4999989 C30.7731354,55.4999989 32.1223685,54.1848356 32.1223685,52.5624993 L32.1223685,46.6875002 L20.0679825,46.6875002 L20.0679825,52.5624993 Z M5,43.7500041 L17.054386,43.7500041 L17.054386,20.2500041 L5,20.2500041 L5,43.7500041 Z M31.7108242,20.2500041 L20.0679825,20.2500041 L20.0679825,43.7500041 L32.1223685,43.7500041 L32.1223685,21.7031484 L31.7108242,20.2500041 Z" id="Shape" fill="currentColor" fill-rule="nonzero" opacity="0.4"></path>
        <path d="M5,20.2492974 L16.999844,20.2492974 L16.999844,17.3119659 L5,17.3119659 L5,20.2492974 Z M19.999805,46.6852803 L31.999649,46.6852803 L31.999649,43.7479489 L19.999805,43.7479489 L19.999805,46.6852803 Z M5,46.6852803 L16.999844,46.6852803 L16.999844,43.7479489 L5,43.7479489 L5,46.6852803 Z M34.9414858,10.1347801 C34.7899357,9.57096489 34.415318,9.08944785 33.9004177,8.79663732 C33.3855174,8.50382678 32.772725,8.42382917 32.1974589,8.5743228 L30.7546652,8.95892963 C29.5558366,9.2766672 28.8466868,10.4854027 29.1703108,11.6594387 L30.7640401,17.3147197 L19.999805,17.3147197 L19.999805,20.2520511 L31.5899668,20.2520511 L41.0585938,53.8652199 C41.2101438,54.4290351 41.5847616,54.9105522 42.0996619,55.2033627 C42.6145622,55.4961732 43.2273545,55.5761708 43.8026206,55.4256772 L45.2444768,55.0383166 C46.4433054,54.720579 47.1524552,53.5118435 46.8288312,52.3378075 L34.9414858,10.1347801 Z M58.922424,52.3405613 L47.0350786,10.1347801 C46.8835285,9.57096489 46.5089108,9.08944785 45.9940105,8.79663732 C45.4791101,8.50382678 44.8663178,8.42382917 44.2910517,8.5743228 L42.848258,8.95892963 C41.6494294,9.2766672 40.9402796,10.4854027 41.2639036,11.6594387 L53.1512491,53.8652199 C53.3027991,54.4290351 53.6774169,54.9105522 54.1923172,55.2033627 C54.7072175,55.4961732 55.3200098,55.5761708 55.8952759,55.4256772 L57.3380696,55.0383166 C58.5354942,54.7205422 59.2442521,53.5137066 58.922424,52.3405613 L58.922424,52.3405613 Z" id="Shape" fill="currentColor" fill-rule="nonzero"></path>
    </g>
</svg>

<svg width="64" height="64" xmlns="http://www.w3.org/2000/svg"><g fill="currentColor" fill-rule="nonzero"><path d="M30.88 17.313H20.068v-5.875c0-1.623 1.35-2.938 3.014-2.938h6.027c.59 0 1.167.168 1.66.486-1.149.36-1.803 1.536-1.489 2.67l1.6 5.657zM5 52.563C5 54.184 6.35 55.5 8.014 55.5h6.027c1.664 0 3.013-1.315 3.013-2.938v-5.874H5v5.874zm36.429-40.906a2.286 2.286 0 0 1-.048-.22h-5.933l11.571 40.906c.02.074.036.146.048.22H53L41.429 11.656zM14.04 8.5H8.014C6.349 8.5 5 9.815 5 11.438v5.875h12.054v-5.875c0-1.623-1.349-2.938-3.013-2.938zm6.027 44.062c0 1.623 1.35 2.938 3.014 2.938h6.027c1.664 0 3.013-1.315 3.013-2.938v-5.874H20.068v5.874zM5 43.75h12.054v-23.5H5v23.5zm26.71-23.5H20.069v23.5h12.054V21.703l-.411-1.453z" opacity=".4"/><path d="M5 20.25h12v-2.938H5v2.937zm15 26.435h12v-2.937H20v2.937zm-15 0h12v-2.937H5v2.937zm29.941-36.55a2.2 2.2 0 0 0-1.04-1.338 2.281 2.281 0 0 0-1.704-.223l-1.442.385c-1.2.318-1.908 1.526-1.585 2.7l1.594 5.656H20v2.937h11.59l9.469 33.613a2.2 2.2 0 0 0 1.04 1.338 2.281 2.281 0 0 0 1.704.223l1.441-.388c1.2-.317 1.908-1.526 1.585-2.7L34.94 10.135zM58.922 52.34L47.035 10.135a2.2 2.2 0 0 0-1.041-1.338 2.281 2.281 0 0 0-1.703-.223l-1.443.385c-1.199.318-1.908 1.526-1.584 2.7L53.15 53.865a2.2 2.2 0 0 0 1.041 1.338 2.281 2.281 0 0 0 1.703.223l1.443-.388c1.197-.317 1.906-1.524 1.584-2.697z"/></g></svg>
